flaticon/interaction/bookmark-8.svg

<svg xmlns="http://www.w3.org/2000/svg" width="32" height="32" viewBox="0 0 24 24">
    <path d="M 22.601562 23.265625 L 20.042969 20.589844 C 20.789062 19.769531 21.25 18.679688 21.25 17.484375 C 21.25 14.933594 19.175781 12.855469 16.621094 12.855469 C 14.070312 12.855469 11.996094 14.933594 11.996094 17.484375 C 11.996094 20.035156 14.070312 22.109375 16.621094 22.109375 C 17.667969 22.109375 18.632812 21.757812 19.410156 21.171875 L 21.980469 23.859375 C 22.0625 23.949219 22.175781 23.992188 22.289062 23.992188 C 22.398438 23.992188 22.503906 23.953125 22.585938 23.875 C 22.757812 23.710938 22.761719 23.4375 22.601562 23.265625 Z M 12.851562 17.484375 C 12.851562 15.40625 14.542969 13.714844 16.621094 13.714844 C 18.703125 13.714844 20.394531 15.40625 20.394531 17.484375 C 20.394531 19.5625 18.703125 21.253906 16.621094 21.253906 C 14.542969 21.253906 12.851562 19.5625 12.851562 17.484375 Z M 12.851562 17.484375"/>
    <path d="M 8.566406 16.445312 L 2.136719 22.875 L 2.136719 5.570312 L 14.996094 5.570312 L 14.996094 10.714844 C 14.996094 10.953125 15.1875 11.144531 15.425781 11.144531 C 15.660156 11.144531 15.851562 10.953125 15.851562 10.714844 L 15.851562 0 L 1.28125 0 L 1.28125 23.332031 C 1.28125 23.605469 1.441406 23.84375 1.691406 23.949219 C 1.773438 23.984375 1.863281 24 1.949219 24 C 2.121094 24 2.292969 23.933594 2.417969 23.804688 L 8.566406 17.65625 L 10.023438 19.113281 C 10.191406 19.28125 10.464844 19.28125 10.632812 19.113281 C 10.796875 18.945312 10.796875 18.675781 10.632812 18.507812 Z M 2.136719 0.855469 L 14.996094 0.855469 L 14.996094 4.714844 L 2.136719 4.714844 Z M 2.136719 0.855469"/>
</svg>

<svg xmlns="http://www.w3.org/2000/svg" width="32" height="32" viewBox="0 0 24 24">
    <path d="M22.602 23.266l-2.559-2.676a4.606 4.606 0 0 0 1.207-3.106 4.634 4.634 0 0 0-4.629-4.629 4.633 4.633 0 0 0-4.625 4.63 4.63 4.63 0 0 0 4.625 4.624 4.62 4.62 0 0 0 2.79-.937l2.57 2.687c.081.09.195.133.308.133.11 0 .215-.039.297-.117a.435.435 0 0 0 .016-.61zm-9.75-5.782a3.774 3.774 0 0 1 3.77-3.77 3.775 3.775 0 0 1 3.773 3.77 3.775 3.775 0 0 1-3.774 3.77 3.774 3.774 0 0 1-3.77-3.77zm0 0"/>
    <path d="M8.566 16.445l-6.43 6.43V5.57h12.86v5.145a.428.428 0 1 0 .856 0V0H1.282v23.332a.664.664 0 0 0 1.136.473l6.148-6.149 1.457 1.457a.431.431 0 0 0 .61 0 .434.434 0 0 0 0-.605zM2.136.855h12.86v3.86H2.136zm0 0"/>
</svg>
